!!!COA:	Josquin des Prez
!!!CDT:	~1450-1521/08/27
!!!OTL@@FRE: En non saichant
!!!AGN:	Chanson
!!!SCT:	NJE 29.6
!!!SCA:	New Josquin Edition 29.6
!!!voices:	5
**kern	**kern	**kern	**kern	**kern
*staff5	*staff4	*staff3	*staff2	*staff1
*Ivox	*Ivox	*Ivox	*Ivox	*Ivox
*I"Bassus	*I"Quintus	*I"Tenor	*I"Superius	*I"Contratenor
*I'B	*I'Q	*I'T	*I'S	*I'Ct
*clefF4	*clefF4	*clefGv2	*clefGv2	*clefG2
*k[]	*k[]	*k[]	*k[]	*k[]
*M2/1	*M2/1	*M2/1	*M2/1	*M2/1
*met(C|)	*met(C|)	*met(C|)	*met(C|)	*met(C|)
=1-	=1-	=1-	=1-	=1-
1E	1e	0r	0r	1e
1F	1c	.	.	1a
=2	=2	=2	=2	=2
1F	1d	0r	1r	1a
1E	1e	.	[1e	1g
=3	=3	=3	=3	=3
0r	1r	1E	2e\]	2g/
.	.	.	2c\	1cc
.	1A	1F	1c	.
.	.	.	.	2b\
=4	=4	=4	=4	=4
0r	1A	1F	1d	1a
.	2.B\	1E	[1e	1g
.	4G\	.	.	.
=5	=5	=5	=5	=5
1E	1G	2B\	1e]	1r
.	.	2.c\	.	.
1F	[1A	.	1A	[1c
.	.	4B\	.	.
.	.	4A/	.	.
.	.	4G/	.	.
=6	=6	=6	=6	=6
1F	2A\]	1A	1a	2c/]
.	2D\	.	.	2d/
[1E	2.G\	1B	2.g\	2.e/
.	4A\	.	4f\	4f/
=7	=7	=7	=7	=7
2E\]	2B\	1E	4e\	2g/
.	.	.	4d\	.
2AA/	2A\	.	2.c\	2a/
1AA	2.c\	1A	.	2e/
.	.	.	4B\	.
.	.	.	[2A/	[2cc\
.	4B\	.	.	.
=8	=8	=8	=8	=8
1.F	4A\	2r	2A/]	2cc\]
.	4G\	.	.	.
.	2A\	1D	2.d\	2b\
.	1r	.	.	2.a/
.	.	.	4c\	.
2E\	.	2E/	4B\	.
.	.	.	4A/	4g/
=9	=9	=9	=9	=9
1D	0r	1F	1B	1f
1C	.	2.G/	2.c\	1e
.	.	4E/	4A/	.
=10	=10	=10	=10	=10
2r	2r	2G/	2B\	0r
1F	2c\	1A	2.c\	.
.	2d\	.	.	.
.	.	.	4A/	.
2E\	2e\	2G/	[2B\	.
=11	=11	=11	=11	=11
2D\	1A	2F/	4B\]	0r
.	.	.	4A/	.
2C/	.	2E/	1A	.
1BB	1d	1D	.	.
.	.	.	2G#i/	.
=12	=12	=12	=12	=12
0AA	1.c	1E	0A	1r
.	.	1c	.	1e
.	4B\	.	.	.
.	4A\	.	.	.
=13	=13	=13	=13	=13
1.E	2G\	1B	0r	2.g/
.	2E\	.	.	.
.	.	.	.	4a/
.	1e	2B\	.	2b\
2C/	.	[2e\	.	[2cc\
=14	=14	=14	=14	=14
1C	2r	4e\]	0r	4cc\]
.	.	4d\	.	4b\
.	2e\	4c\	.	4a/
.	.	4B\	.	4g/
1D	2.d\	1A	.	4f/
.	.	.	.	4g/
.	.	.	.	4a/
.	4c\	.	.	4f/
=15	=15	=15	=15	=15
1.E	4B\	2G/	1e	1.g
.	4A\	.	.	.
.	2B\	2E/	.	.
.	[1G	1e	[1g	.
2C/	.	.	.	4f/
.	.	.	.	4e/
=16	=16	=16	=16	=16
1C	2G\]	2r	2g\]	2e/
.	2E\	2e\	2g\	2cc\
1D	1F	2.d\	1f	2b\
.	.	.	.	[2a/
.	.	4c\	.	.
=17	=17	=17	=17	=17
0E	2.G\	2.B\	1.e	2a/]
.	.	.	.	4g#i/
.	4E\	4A/	.	4f#i/
.	1E	1B	.	1g#i
.	.	.	2e\	.
=18	=18	=18	=18	=18
2AA/	1.A	2A/	2.c\	0a
2.A\	.	2.c\	.	.
.	.	.	4d\	.
.	.	.	2e\	.
4G\	.	4B\	.	.
4F\	2D\	4A/	[2f\	.
4E\	.	4G/	.	.
=19	=19	=19	=19	=19
2F\	2D\	2A/	4f\]	0r
.	.	.	4e\	.
2G\	1G	2B\	1d	.
1E	.	1G	.	.
.	2C/	.	2c#i\	.
=20	=20	=20	=20	=20
0D	0F	0A	0d	0r
=21	=21	=21	=21	=21
2r	2r	2r	0r	2r
2D\	2F\	2A/	.	2f/
1D	2.F\	1d	.	1f
.	4G\	.	.	.
=22	=22	=22	=22	=22
1AA	0A	1c	1r	1e
2r	.	2r	2r	2r
2D\	.	2F/	2A/	2f/
=23	=23	=23	=23	=23
1D	0r	2.F/	1d	1f
.	.	4G/	.	.
1AA	.	1A	1c	1e
=24	=24	=24	=24	=24
2r	2r	2r	1.f	1r
2D\	2F\	2A/	.	.
1D	2.F\	1d	.	2r
.	.	.	2f\	2a/
.	4G\	.	.	.
=25	=25	=25	=25	=25
2AA/	1A	2c\	2e\	1cc
2A\	.	2A/	4d\	.
.	.	.	4c\	.
2G\	1r	2B\	4d\	2b\
.	.	.	4e\	.
[2A\	.	[2c\	[2f\	2a/
=26	=26	=26	=26	=26
4A\]	0r	4c\]	4f\]	2cc\
4G\	.	4B\	4e\	.
2E\	.	2G/	1e	2b\
1F	.	1A	.	1a
.	.	.	2d\	.
=27	=27	=27	=27	=27
2E\	2r	2B\	0e	2g/
2A\	2AA/	2c\	.	2c/
2G\	2E\	2B\	.	2g/
[2A\	2AA/	2A/	.	[2c/
=28	=28	=28	=28	=28
4A\]	2A\	1c	1r	4c/]
4G\	.	.	.	4d/
2E\	2G\	.	.	1e
1F	2A\	1A	2r	.
.	2D\	.	[2a\	2d/
=29	=29	=29	=29	=29
1E	2G\	1B	2a\]	1e
.	2C/	.	2g\	.
1C	2.c\	1e	2e\	2r
.	.	.	2g\	2e/
.	4B\	.	.	.
=30	=30	=30	=30	=30
1D	4A\	1d	1f	1a
.	4G\	.	.	.
.	2F\	.	.	.
1E	2G\	2B\	2e\	1g
.	2E\	[2e\	[2g\	.
=31	=31	=31	=31	=31
1C	2G\	4e\]	4g\]	1e
.	.	4d\	4f\	.
.	2A\	2c\	2.e\	.
1D	1F	4B\	.	1f
.	.	4A/	4d\	.
.	.	[2A/	2d\	.
=32	=32	=32	=32	=32
1E	2E\	2A/]	2c\	2.g/
.	2e\	2G/	2.B\	.
.	.	.	.	4e/
1AA	2e\	2.A/	.	1e
.	.	.	4A/	.
.	2e\	.	2c\	.
.	.	4E/	.	.
=33	=33	=33	=33	=33
0r	2d\	2G/	2B\	1r
.	2c\	2A/	2A/	.
.	1B	1E	2A/	1b
.	.	.	2G#i/	.
=34	=34	=34	=34	=34
1r	2A\	0e	0A	1cc
.	1c	.	.	.
1AA	.	.	.	1cc
.	4B\	.	.	.
.	4A\	.	.	.
=35	=35	=35	=35	=35
1E	2G\	0e	1r	1b
.	2E\	.	.	.
1AA	1A	.	2r	[1cc
.	.	.	[2A/	.
=36	=36	=36	=36	=36
2r	1E	0e	2A/]	2cc\]
1E	.	.	2G/	2b\
.	2r	.	1c	2g/
2C/	2E\	.	.	[2a/
=37	=37	=37	=37	=37
2D\	2F\	2d\	1B	2a/]
2E\	2G\	2B\	.	2g/
2C/	2E\	2c\	1A	1a
2D\	2F\	[2A/	.	.
=38	=38	=38	=38	=38
1BB	1D	2A/]	1d	1b
.	.	2G#i/	.	.
1AA	2E\	[1A	2.c\	1cc
.	[2c\	.	.	.
.	.	.	4d\	.
=39	=39	=39	=39	=39
2r	4c\]	1A]	2e\	0r
.	4B\	.	.	.
2D\	2.A\	.	2f\	.
2C/	.	2r	4e\	.
.	4G\	.	4d\	.
[2D\	4F\	2A/	[2f\	.
.	4E\	.	.	.
=40	=40	=40	=40	=40
2D\]	2D\	2F/	2f\]	0r
4C/	2d\	2G/	4e\	.
4BB/	.	.	4d\	.
2AA/	2.c\	2.A/	2f\	.
[2C/	.	.	2e\	.
.	8B\L	4G/	.	.
.	8A\J	.	.	.
=41	=41	=41	=41	=41
2C/]	4G\	2E/	2g\	0r
.	4E\	.	.	.
2D\	1A	2F/	1f	.
1BB	.	1D	.	.
.	2G#i\	.	4e\	.
.	.	.	4d\	.
=42	=42	=42	=42	=42
1AA	0A	1E	1.c	0r
1r	.	1r	.	.
.	.	.	2A/	.
=43	=43	=43	=43	=43
1AA	0r	1A	1e	1c
2.A\	.	1A	2r	1c
.	.	.	2e\	.
4G\	.	.	.	.
=44	=44	=44	=44	=44
1F	1r	1A	1a	1d
1E	2r	2.B\	2.g\	1e
.	2E\	.	.	.
.	.	4A/	4f\	.
=45	=45	=45	=45	=45
0r	2G\	2B\	2d\	1r
.	2.C/	2.c\	2.e\	.
.	.	.	.	1e
.	4D\	4B\	4d\	.
.	2E\	2G/	2B\	.
=46	=46	=46	=46	=46
2r	2AA/	2A/	2.c\	2e/
2AA/	2A\	2c\	.	2e/
.	.	.	4B\	.
2E\	2E\	2B\	2G/	1e
2AA/	2A\	2A/	[2A/	.
=47	=47	=47	=47	=47
2.A\	2AA/	2c\	4A/]	1r
.	.	.	4B\	.
.	2A\	1F	2c\	.
4G\	.	.	.	.
2F\	2D\	.	2A/	2r
2E\	2G\	2G/	[2B\	2e/
=48	=48	=48	=48	=48
2D\	2F\	1A	2B\]	2f/
2C/	2c\	.	1A	2e/
1BB	2d\	1D	.	1d
.	2B\	.	2G#i/	.
=49	=49	=49	=49	=49
1AA	2c\	1E	[0Al	1c
.	2A\	.	.	.
2r	4c\	2r	.	2r
.	4B\	.	.	.
2AA/	4A\	2e\	.	2c/
.	4G\	.	.	.
=50	=50	=50	=50	=50
2D\	2F\	2f\	0A_	2d/
2C/	4c\	2e\	.	2e/
.	4B\	.	.	.
1D	4A\	1d	.	1f
.	4G\	.	.	.
.	[2A\	.	.	.
=51	=51	=51	=51	=51
[0AAl	4A\]	[0cl	0A_	[0el
.	4G\	.	.	.
.	2E\	.	.	.
.	1E	.	.	.
=52	=52	=52	=52	=52
0AA_	[0El	0c_	0A_	0e_
=53	=53	=53	=53	=53
0AA]	0E]	0c]	0A]	0e]
==	==	==	==	==
*-	*-	*-	*-	*-
!!!RDF**kern: l=long note in original notation
!!!RDF**kern: i=editorial accidental
!!!ENC:	Will Watson 15/09/2011
!!!END:	2011/09/15/
!!!EED:	Jesse Rodin
!!!EEV:	2011/12/06/
!!attribution-level@Jos: 3 (tricky)
!!!ONB:	Translated from MusicXML and edited on 2011/12/06/ by Craig Sapp
!!muse2ps: C^@{COA}?\n@{SCT}^I150v95,95,95,95,95,130c105i2I150Q16
